bell-minus.svg

<svg fill="currentColor" viewBox="0 0 24 24"><path d="M22 19v-2h-8v2zM12 2c-1.1 0-2 .9-2 2v.29C7.12 5.14 5 7.82 5 11v6l-2 2v1h9.35a5.9 5.9 0 0 1-.35-2c0-3.31 2.69-6 6-6 .34 0 .67.03 1 .09V11c0-3.18-2.12-5.86-5-6.71V4a2 2 0 0 0-2-2m-2 19a2 2 0 0 0 3.65 1.13c-.32-.34-.6-.72-.84-1.13z"/></svg>

<svg  viewBox="0 0 24 24" fill="currentColor"><path  d="M22 19V17H14V19H22M12 2C10.9 2 10 2.9 10 4C10 4.1 10 4.19 10 4.29C7.12 5.14 5 7.82 5 11V17L3 19V20H12.35C12.12 19.36 12 18.68 12 18C12 14.69 14.69 12 18 12C18.34 12 18.67 12.03 19 12.09V11C19 7.82 16.88 5.14 14 4.29C14 4.19 14 4.1 14 4C14 2.9 13.11 2 12 2M10 21C10 22.11 10.9 23 12 23C12.66 23 13.28 22.67 13.65 22.13C13.33 21.79 13.05 21.41 12.81 21H10Z"/></svg>
